X:3410
L:1/8
Q:1/2=100
M:4/4
K:Bb
 F2 B2 A2 B2 | c2 d2 c2 B2 | de f2 f4 | cd e2 e4 | BABc dcd"^*"=e | f"^*"=efg e2 d2 | 
 fg a2 de ^f2 | ^f3 e f4 || f2 b2 a2 b2 | g2 a2 ^f4 | g2 d2 e2 d2 | g2 (de/f/) e2 d2 | GABc d2 cB | 
 ABcA B2 G2 | Bcde f3 f | gabc' a4 | b2 f2 gfed | cdef d2 B2 | fg_af gfed | c3 B B4 |]

